components/Common/Svg/svgs/customWebDevelopment2.svg

<svg width="90" height="90" viewBox="0 0 90 90" fill="none" xmlns="http://www.w3.org/2000/svg">
<circle opacity="0.7" cx="45" cy="45" r="45" fill="#FFE603"/>
<path fill-rule="evenodd" clip-rule="evenodd" d="M59.1667 54.4997C60.1792 54.4997 61 53.6789 61 52.6664V32.8333C61 31.8208 60.1792 31 59.1667 31H30.8333C29.8208 31 29 31.8208 29 32.8333V52.6664C29 53.6789 29.8208 54.4997 30.8333 54.4997H45H59.1667ZM46 56.4997H59.1667C61.2838 56.4997 63 54.7834 63 52.6664V32.8333C63 30.7162 61.2838 29 59.1667 29H30.8333C28.7162 29 27 30.7162 27 32.8333V52.6664C27 54.7834 28.7162 56.4997 30.8333 56.4997H44V60.1664H39.3345C38.7822 60.1664 38.3345 60.6142 38.3345 61.1664C38.3345 61.7187 38.7822 62.1664 39.3345 62.1664H50.6678C51.2201 62.1664 51.6678 61.7187 51.6678 61.1664C51.6678 60.6142 51.2201 60.1664 50.6678 60.1664H46V56.4997Z" fill="#161616"/>
</svg>

<svg width="90" height="90" viewBox="0 0 90 90" fill="none" xmlns="http://www.w3.org/2000/svg"><circle opacity=".7" cx="45" cy="45" r="45" fill="#FFE603"/><path fill-rule="evenodd" clip-rule="evenodd" d="M59.167 54.5c1.012 0 1.833-.821 1.833-1.834V32.833C61 31.821 60.18 31 59.167 31H30.833C29.821 31 29 31.82 29 32.833v19.833c0 1.013.82 1.834 1.833 1.834h28.334ZM46 56.5h13.167A3.833 3.833 0 0 0 63 52.666V32.833A3.833 3.833 0 0 0 59.167 29H30.833A3.833 3.833 0 0 0 27 32.833v19.833a3.833 3.833 0 0 0 3.833 3.834H44v3.666h-4.666a1 1 0 0 0 0 2h11.334a1 1 0 1 0 0-2H46V56.5Z" fill="#161616"/></svg>
